qaazqaaz/images/landing/shapes/1.svg

<?xml version="1.0" encoding="UTF-8"?>
<svg width="36px" height="36px" viewBox="0 0 36 36" version="1.1" xmlns="http://www.w3.org/2000/svg" xmlns:xlink="http://www.w3.org/1999/xlink">
    <!-- Generator: Sketch 47 (45396) - http://www.bohemiancoding.com/sketch -->
    <title>1</title>
    <desc>Created with Sketch.</desc>
    <defs></defs>
    <g id="Page-1" stroke="none" stroke-width="1" fill="none" fill-rule="evenodd">
        <g id="Desktop-HD-Copy-3" transform="translate(-264.000000, -6618.000000)">
            <g id="1" transform="translate(266.000000, 6620.000000)">
                <path d="M4.57142857,0.507936508 C7.11111111,0.253968254 14.0353662,-7.10542736e-15 16,-7.10542736e-15 C18.0561153,-7.10542736e-15 24.8888889,0.253968254 27.4285714,0.507936508 C29.968254,0.761904762 31.2380952,2.03174603 31.4920635,4.57142857 C31.7460317,7.11111111 32,13.9327933 32,16 C32,18.0750418 31.7460317,24.8888889 31.4920635,27.4285714 C31.2380952,29.968254 29.968254,31.2380952 27.4285714,31.4854218 C24.8888889,31.7327484 18.0859894,32 16,32 C13.9179304,32 7.15919577,31.7327484 4.5954709,31.4854218 C2.03174603,31.2380952 0.761904762,29.968254 0.507936508,27.1746032 C0.253968254,24.3809524 1.27897692e-13,18.0756392 1.27897692e-13,16 C1.27897692e-13,13.8743554 0.253968254,7.36507937 0.507936508,4.57142857 C0.761904762,1.77777778 2.03174603,0.761904762 4.57142857,0.507936508 Z" id="Rectangle-7-Copy-4" stroke="#000000" stroke-width="4" fill="#FFFFFF"></path>
                <polygon fill="#000000" points="12 12.9675676 13.1830986 14.5891892 15.6169014 12.9351351 15.6169014 22 18 22 18 10 16.1915493 10"></polygon>
            </g>
        </g>
    </g>
</svg>

<svg width="36" height="36" xmlns="http://www.w3.org/2000/svg"><title>1</title><g id="Page-1" fill="none" fill-rule="evenodd"><g id="Desktop-HD-Copy-3" transform="translate(-264 -6618)"><g id="1" transform="translate(266 6620)"><path d="M4.571.508C7.111.254 14.035 0 16 0c2.056 0 8.889.254 11.429.508 2.54.254 3.81 1.524 4.063 4.063C31.746 7.111 32 13.933 32 16c0 2.075-.254 8.889-.508 11.429-.254 2.54-1.524 3.81-4.063 4.056-2.54.248-9.343.515-11.429.515-2.082 0-8.84-.267-11.405-.515-2.563-.247-3.833-1.517-4.087-4.31C.254 24.38 0 18.075 0 16c0-2.126.254-8.635.508-11.429C.762 1.778 2.032.761 4.57.508z" id="Rectangle-7-Copy-4" stroke="#000" stroke-width="4" fill="#FFF"/><path fill="#000" d="M12 12.968l1.183 1.621 2.434-1.654V22H18V10h-1.808z"/></g></g></g></svg>
